X: 1
T: Mu\ss i denn
O: Schw\"abishes Volkslied
M: 4/4
L: 1/8
K: D
DE \
| "D"F2FA "A7"G2GB | "D"A2AG F4 | "D"A2AG F2FA | "A7"G2G2 E2A2 | "D"F4 z2 :|
|: DF \
| "A7"E3F G2E2 | "D"F3G A2AA | "G"B2B2 d2cB | "D"A4 "(A7)"z2DF | "D"A2AB A2Ad |
| "D"A2AG F4 | "D"A2AG F2FA | "A7"G2G2 E2A2 |1 "D"F4 z2 :|2 "D"D4 z2 |]
